symbols/web/mobile_screen_share/materialsymbolsoutlined/mobile_screen_share_wght600grad200fill1_24px.svg

<svg xmlns="http://www.w3.org/2000/svg" height="24" width="24"><path d="M8.7 15.125V13.55q0-1.375.938-2.325.937-.95 2.287-.95h.925V7.95l3.525 3.55-3.525 3.525V12.7h-.925q-.35 0-.575.25-.225.25-.225.575v1.6ZM7.15 17.65h9.7V6.35h-9.7Zm0 6.35q-1.275 0-2.175-.9-.9-.9-.9-2.175V3.075q0-1.275.9-2.175.9-.9 2.175-.9h9.7q1.275 0 2.175.9.9.9.9 2.175v17.85q0 1.275-.9 2.175-.9.9-2.175.9Z"/></svg>

<svg xmlns="http://www.w3.org/2000/svg" height="24" width="24"><path d="M8.7 15.125V13.55Q8.7 12.175 9.638 11.225Q10.575 10.275 11.925 10.275H12.85V7.95L16.375 11.5L12.85 15.025V12.7H11.925Q11.575 12.7 11.35 12.95Q11.125 13.2 11.125 13.525V15.125ZM7.15 17.65H16.85V6.35H7.15ZM7.15 24Q5.875 24 4.975 23.1Q4.075 22.2 4.075 20.925V3.075Q4.075 1.8 4.975 0.9Q5.875 0 7.15 0H16.85Q18.125 0 19.025 0.9Q19.925 1.8 19.925 3.075V20.925Q19.925 22.2 19.025 23.1Q18.125 24 16.85 24Z"/></svg>
